**harm	**harte	**timestamp	**phrase	**leadinstrument	**kern
*M4/4	*M4/4	*	*	*	*
*A:	*A:	*	*	*	*A:
1r;	N	0	.	r	1r;
=1	=1	=1	=1	=1	=1
*>A_intro	*>A_intro	*>A_intro	*>A_intro	*>A_intro	*>A_intro
2-VI	F:maj	2.758	newline	guitar	2F 2a 2cc
2-VII	G:maj	3.953	.	guitar	2G 2b 2dd
=2	=2	=2	=2	=2	=2
1I	A:maj	5.147	.	guitar	1A 1cc# 1ee
=3	=3	=3	=3	=3	=3
2-VI	F:maj	7.537	.	guitar	2F 2a 2cc
4-III	C:maj	8.731	.	guitar	4C 4e 4g
4-VII	G:maj	9.329	.	guitar	4G 4b 4dd
=4	=4	=4	=4	=4	=4
1I	A:maj	9.926	.	guitar	1A 1cc# 1ee
=5	=5	=5	=5	=5	=5
1V7	E:7	12.315	newline	guitar	1E 1g# 1b 1dd
=6	=6	=6	=6	=6	=6
1V7	E:7	14.72	.	guitar	1E 1g# 1b 1dd
=7	=7	=7	=7	=7	=7
*>B_verse	*>B_verse	*>B_verse	*>B_verse	*>B_verse	*>B_verse
2I	A:5	17.125	newline	voice	2A 2cc# 2ee
4-III	C:5	18.35	.	voice	4C 4e 4g
4IV	D:5	18.963	.	voice	4D 4f# 4a
=8	=8	=8	=8	=8	=8
1I	A:5	19.575	.	voice	1A 1cc# 1ee
=9	=9	=9	=9	=9	=9
2I	A:5	22.025	.	voice	2A 2cc# 2ee
4-III	C:5	23.25	.	voice	4C 4e 4g
4IV	D:5	23.863	.	voice	4D 4f# 4a
=10	=10	=10	=10	=10	=10
1I	A:5	24.475	.	voice	1A 1cc# 1ee
=11	=11	=11	=11	=11	=11
2I	A:5	26.925	.	voice	2A 2cc# 2ee
4-III	C:5	28.15	.	voice	4C 4e 4g
4IV	D:5	28.763	.	voice	4D 4f# 4a
=12	=12	=12	=12	=12	=12
1I	A:5	29.375	.	voice	1A 1cc# 1ee
=13	=13	=13	=13	=13	=13
2I	A:5	31.825	.	voice	2A 2cc# 2ee
4-III	C:5	33.05	.	voice	4C 4e 4g
4IV	D:5	33.662	.	voice	4D 4f# 4a
=14	=14	=14	=14	=14	=14
1I	A:5	34.275	.	voice	1A 1cc# 1ee
=15	=15	=15	=15	=15	=15
*>A_chorus	*>A_chorus	*>A_chorus	*>A_chorus	*>A_chorus	*>A_chorus
2-VI	F:maj	36.725	newline	voice	2F 2a 2cc
2-VII	G:maj	37.939	.	voice	2G 2b 2dd
=16	=16	=16	=16	=16	=16
1I	A:maj	39.153	.	voice	1A 1cc# 1ee
=17	=17	=17	=17	=17	=17
2-VI	F:maj	41.581	.	voice	2F 2a 2cc
4-III	C:maj	42.795	.	voice	4C 4e 4g
4-VII	G:maj	43.402	.	voice	4G 4b 4dd
=18	=18	=18	=18	=18	=18
1I	A:maj	44.009	.	voice	1A 1cc# 1ee
=19	=19	=19	=19	=19	=19
2-VI	F:maj	46.437	.	voice	2F 2a 2cc
2-VII	G:maj	47.651	.	voice	2G 2b 2dd
=20	=20	=20	=20	=20	=20
1I	A:maj	48.865	.	voice	1A 1cc# 1ee
=21	=21	=21	=21	=21	=21
2-VI	F:maj	51.293	.	voice	2F 2a 2cc
4-III	C:maj	52.507	.	voice	4C 4e 4g
4-VII	G:maj	53.114	.	voice	4G 4b 4dd
=22	=22	=22	=22	=22	=22
1I	A:maj	53.721	.	voice	1A 1cc# 1ee
=23	=23	=23	=23	=23	=23
1V7	E:7	56.149	newline	guitar	1E 1g# 1b 1dd
=24	=24	=24	=24	=24	=24
1V7	E:7	58.602	.	guitar	1E 1g# 1b 1dd
=25	=25	=25	=25	=25	=25
*>B_verse	*>B_verse	*>B_verse	*>B_verse	*>B_verse	*>B_verse
2I	A:5	61.055	newline	voice	2A 2cc# 2ee
4-III	C:5	62.291	.	voice	4C 4e 4g
4IV	D:5	62.909	.	voice	4D 4f# 4a
=26	=26	=26	=26	=26	=26
1I	A:5	63.527	.	voice	1A 1cc# 1ee
=27	=27	=27	=27	=27	=27
2I	A:5	65.999	.	voice	2A 2cc# 2ee
4-III	C:5	67.235	.	voice	4C 4e 4g
4IV	D:5	67.853	.	voice	4D 4f# 4a
=28	=28	=28	=28	=28	=28
1I	A:5	68.471	.	voice	1A 1cc# 1ee
=29	=29	=29	=29	=29	=29
2I	A:5	70.943	.	voice	2A 2cc# 2ee
4-III	C:5	72.179	.	voice	4C 4e 4g
4IV	D:5	72.797	.	voice	4D 4f# 4a
=30	=30	=30	=30	=30	=30
1I	A:5	73.415	.	voice	1A 1cc# 1ee
=31	=31	=31	=31	=31	=31
2I	A:5	75.887	.	voice	2A 2cc# 2ee
4-III	C:5	77.123	.	voice	4C 4e 4g
4IV	D:5	77.741	.	voice	4D 4f# 4a
=32	=32	=32	=32	=32	=32
1I	A:5	78.359	.	voice	1A 1cc# 1ee
=33	=33	=33	=33	=33	=33
*>A_chorus	*>A_chorus	*>A_chorus	*>A_chorus	*>A_chorus	*>A_chorus
2-VI	F:maj	80.831	newline	.	2F 2a 2cc
2-VII	G:maj	82.05	.	.	2G 2b 2dd
=34	=34	=34	=34	=34	=34
1I	A:maj	83.269	.	.	1A 1cc# 1ee
=35	=35	=35	=35	=35	=35
2-VI	F:maj	85.707	.	.	2F 2a 2cc
4-III	C:maj	86.926	.	.	4C 4e 4g
4-VII	G:maj	87.535	.	.	4G 4b 4dd
=36	=36	=36	=36	=36	=36
1I	A:maj	88.145	.	.	1A 1cc# 1ee
=37	=37	=37	=37	=37	=37
2-VI	F:maj	90.583	.	.	2F 2a 2cc
2-VII	G:maj	91.802	.	.	2G 2b 2dd
=38	=38	=38	=38	=38	=38
1I	A:maj	93.021	.	.	1A 1cc# 1ee
=39	=39	=39	=39	=39	=39
2-VI	F:maj	95.459	.	.	2F 2a 2cc
4-III	C:maj	96.678	.	.	4C 4e 4g
4-VII	G:maj	97.287	.	.	4G 4b 4dd
=40	=40	=40	=40	=40	=40
1I	A:maj	97.897	.	.	1A 1cc# 1ee
=41	=41	=41	=41	=41	=41
1V7	E:7	100.335	newline	voice	1E 1g# 1b 1dd
=42	=42	=42	=42	=42	=42
1V7	E:7	102.79	.	voice	1E 1g# 1b 1dd
=43	=43	=43	=43	=43	=43
*>B_solo	*>B_solo	*>B_solo	*>B_solo	*>B_solo	*>B_solo
2I	A:5	105.244	newline	guitar	2A 2cc# 2ee
4-III	C:5	106.442	.	guitar	4C 4e 4g
4IV	D:5	107.041	.	guitar	4D 4f# 4a
=44	=44	=44	=44	=44	=44
2I	A:5	107.64	.	guitar	2A 2cc# 2ee
4-III	C:5	108.838	.	guitar	4C 4e 4g
4IV	D:5	109.436	.	guitar	4D 4f# 4a
=45	=45	=45	=45	=45	=45
2I	A:5	110.035	.	guitar	2A 2cc# 2ee
4-III	C:5	111.233	.	guitar	4C 4e 4g
4IV	D:5	111.832	.	guitar	4D 4f# 4a
=46	=46	=46	=46	=46	=46
2I	A:5	112.431	.	guitar	2A 2cc# 2ee
4-III	C:5	113.628	.	guitar	4C 4e 4g
4IV	D:5	114.227	.	guitar	4D 4f# 4a
=47	=47	=47	=47	=47	=47
2I	A:5	114.826	.	guitar	2A 2cc# 2ee
4-III	C:5	116.024	.	guitar	4C 4e 4g
4IV	D:5	116.623	.	guitar	4D 4f# 4a
=48	=48	=48	=48	=48	=48
2I	A:5	117.222	.	guitar	2A 2cc# 2ee
4-III	C:5	118.419	.	guitar	4C 4e 4g
4IV	D:5	119.018	.	guitar	4D 4f# 4a
=49	=49	=49	=49	=49	=49
2I	A:5	119.617	.	guitar	2A 2cc# 2ee
4-III	C:5	120.815	.	guitar	4C 4e 4g
4IV	D:5	121.414	.	guitar	4D 4f# 4a
=50	=50	=50	=50	=50	=50
2I	A:5	122.012	.	guitar	2A 2cc# 2ee
4-III	C:5	123.21	.	guitar	4C 4e 4g
4IV	D:5	123.809	.	guitar	4D 4f# 4a
=51	=51	=51	=51	=51	=51
1I	A:5	124.408	newline	.	1A 1cc# 1ee
=52	=52	=52	=52	=52	=52
1I	A:5	126.753	.	.	1A 1cc# 1ee
=53	=53	=53	=53	=53	=53
1I	A:5	129.098	.	.	1A 1cc# 1ee
=54	=54	=54	=54	=54	=54
1I	A:5	131.444	.	.	1A 1cc# 1ee
=55	=55	=55	=55	=55	=55
2I	A:5	133.789	newline	guitar	2A 2cc# 2ee
4-III	C:5	134.974	.	guitar	4C 4e 4g
4IV	D:5	135.567	.	guitar	4D 4f# 4a
=56	=56	=56	=56	=56	=56
2I	A:5	136.159	.	guitar	2A 2cc# 2ee
4-III	C:5	137.345	.	guitar	4C 4e 4g
4IV	D:5	137.937	.	guitar	4D 4f# 4a
=57	=57	=57	=57	=57	=57
2I	A:5	138.53	.	guitar	2A 2cc# 2ee
4-III	C:5	139.715	.	guitar	4C 4e 4g
4IV	D:5	140.308	.	guitar	4D 4f# 4a
=58	=58	=58	=58	=58	=58
2I	A:5	140.9	.	guitar	2A 2cc# 2ee
4-III	C:5	142.085	.	guitar	4C 4e 4g
4IV	D:5	142.678	.	guitar	4D 4f# 4a
=59	=59	=59	=59	=59	=59
*>B_verse	*>B_verse	*>B_verse	*>B_verse	*>B_verse	*>B_verse
2I	A:5	143.271	newline	voice	2A 2cc# 2ee
4-III	C:5	144.504	.	voice	4C 4e 4g
4IV	D:5	145.121	.	voice	4D 4f# 4a
=60	=60	=60	=60	=60	=60
1I	A:5	145.738	.	voice	1A 1cc# 1ee
=61	=61	=61	=61	=61	=61
2I	A:5	148.205	.	voice	2A 2cc# 2ee
4-III	C:5	149.438	.	voice	4C 4e 4g
4IV	D:5	150.055	.	voice	4D 4f# 4a
=62	=62	=62	=62	=62	=62
1I	A:5	150.671	.	voice	1A 1cc# 1ee
=63	=63	=63	=63	=63	=63
2I	A:5	153.138	.	voice	2A 2cc# 2ee
4-III	C:5	154.372	.	voice	4C 4e 4g
4IV	D:5	154.989	.	voice	4D 4f# 4a
=64	=64	=64	=64	=64	=64
1I	A:5	155.605	.	voice	1A 1cc# 1ee
=65	=65	=65	=65	=65	=65
2I	A:5	158.072	.	voice	2A 2cc# 2ee
4-III	C:5	159.306	.	voice	4C 4e 4g
4IV	D:5	159.923	.	voice	4D 4f# 4a
=66	=66	=66	=66	=66	=66
1I	A:5	160.539	.	voice	1A 1cc# 1ee
=67	=67	=67	=67	=67	=67
*>C_chorus	*>C_chorus	*>C_chorus	*>C_chorus	*>C_chorus	*>C_chorus
2-VI	F:maj	163.006	newline	.	2F 2a 2cc
2-VII	G:maj	164.225	.	.	2G 2b 2dd
=68	=68	=68	=68	=68	=68
1I	A:maj	165.444	.	.	1A 1cc# 1ee
=69	=69	=69	=69	=69	=69
2-VI	F:maj	167.881	.	.	2F 2a 2cc
4-III	C:maj	169.1	.	.	4C 4e 4g
4-VII	G:maj	169.709	.	.	4G 4b 4dd
=70	=70	=70	=70	=70	=70
1I	A:maj	170.318	.	.	1A 1cc# 1ee
=71	=71	=71	=71	=71	=71
2-VI	F:maj	172.756	.	.	2F 2a 2cc
2-VII	G:maj	173.974	.	.	2G 2b 2dd
=72	=72	=72	=72	=72	=72
1I	A:maj	175.193	.	.	1A 1cc# 1ee
=73	=73	=73	=73	=73	=73
2-VI	F:maj	177.63	.	.	2F 2a 2cc
4-III	C:maj	178.849	.	.	4C 4e 4g
4-VII	G:maj	179.459	.	.	4G 4b 4dd
=74	=74	=74	=74	=74	=74
1I	A:maj	180.068	.	.	1A 1cc# 1ee
=75	=75	=75	=75	=75	=75
*>C_chorus	*>C_chorus	*>C_chorus	*>C_chorus	*>C_chorus	*>C_chorus
2-VI	F:maj	182.505	newline	.	2F 2a 2cc
2-VII	G:maj	183.697	.	.	2G 2b 2dd
=76	=76	=76	=76	=76	=76
1I	A:maj	184.889	.	.	1A 1cc# 1ee
=77	=77	=77	=77	=77	=77
2-VI	F:maj	187.273	.	.	2F 2a 2cc
4-III	C:maj	188.465	.	.	4C 4e 4g
4-VII	G:maj	189.061	.	.	4G 4b 4dd
=78	=78	=78	=78	=78	=78
1I	A:maj	189.657	.	.	1A 1cc# 1ee
=79	=79	=79	=79	=79	=79
2-VI	F:maj	192.04	.	.	2F 2a 2cc
2-VII	G:maj	193.232	.	.	2G 2b 2dd
=80	=80	=80	=80	=80	=80
1I	A:maj	194.424	.	.	1A 1cc# 1ee
=81	=81	=81	=81	=81	=81
2-VI	F:maj	196.808	.	.	2F 2a 2cc
4-III	C:maj	198	.	.	4C 4e 4g
4-VII	G:maj	198.596	.	.	4G 4b 4dd
=82	=82	=82	=82	=82	=82
1I	A:maj	199.192	.	.	1A 1cc# 1ee
=83	=83	=83	=83	=83	=83
*>C_outro	*>C_outro	*>C_outro	*>C_outro	*>C_outro	*>C_outro
2-VI	F:maj	201.575	newline	.	2F 2a 2cc
2-VII	G:maj	202.765	.	.	2G 2b 2dd
=84	=84	=84	=84	=84	=84
1I	A:maj	203.955	.	.	1A 1cc# 1ee
=85	=85	=85	=85	=85	=85
2-VI	F:maj	206.335	.	.	2F 2a 2cc
4-III	C:maj	207.525	.	.	4C 4e 4g
4-VII	G:maj	208.12	.	.	4G 4b 4dd
=86	=86	=86	=86	=86	=86
1I	A:maj	208.716	.	.	1A 1cc# 1ee
=87	=87	=87	=87	=87	=87
2-VI	F:maj	211.096	newline	voice	2F 2a 2cc
2-VII	G:maj	212.644	.	voice	2G 2b 2dd
1r;	N	214.193	.	r	1r;
=88	=88	=88	=88	=88	=88
*>C_	*>C_	*>C_	*>C_	*>C_	*>C_
1I	A:5	493.228	newline	r	1A 1cc# 1ee
1r;	N	505.6	.	r	1r;
*-	*-	*-	*-	*-	*-
!!!OTL: Rock And Roll, Hoochie Koo
!!!COC: Rick Derringer
!!!BillboardChartDate: 1974/02/23
!!!BillboardPeak: 23
!!!BillboardWeeksOnChart: 14
!!!SampleTargetRank: 43
!!!SampleActualRank: 42
!!!SampleID#: 1267
!!!RDF**harmony: **recip + pitch class of root + harmonic quality
!!!RDF**harte: Chris Harte's syntax, used by MIREX
!!!RDF**phrase: newline = linebreak in original McGill transcription
!!!RDF**timestamp: McGill audio timestamp in seconds
!!!RDF**leadinstrument: original McGill primary instrumentation annotation
!!!RDT: 2017/01/12/
!!!ENC: Nathaniel Condit-Schultz
!!!EST: Awating manual error checking and editing.
